!!!COM: Felix Mendelssohn
!!!CNT: Deutsch
!!!TXO: Deutsch
!!!OTL: Scheidend
!!!LYR: Voss
!!!OPS: Op. 9
!!!ONM: No. 6
!!!ENC: Daniel Alt & Leigh VanHandel
!!!YOR: Sa2mmtliche Lieder fu2r eine Singstimme 
!!!YOR: Neu revidirt von Dr. L. Benda, Ausgabe fu2r mittlere Stimme
!!!YOR: Braunschweig. Henry Litolff's Verlag. Boston and New York: Arthur P. Schmidt.
!!!ODT: 1830/
**kern
*staff1
=1-
*clefG2
*k[f#c#g#d#]
*M6/8
2.r
=2
2.r
=3
2.r
=4
2.r
=5
{4.e
4b
8b
=6
[4.ee
8ee]
8dd#
8cc#
=7
[4.b
8b]
8f#
8a
=8
4g#}
8r
4r
8r
=9
{4.e
4b
8b
=10
[4.ee
8ee]
8dd#
8cc#
=11
[4.b
8b]
8f#
8a
=12
4g#}
8r
4r
8r
=13
{[4.ddn
8dd]
8cc#
8b
=14
4.g#
8a
8r
8e
=15
[4.ddn
8dd]
8f#
8g#
=16
4.b
8a}
8r
8r
=17
{4.c#
8d#
8g#
8d#
=18
4.e
8f#
8b
8f#
=19
4.g#
8a#
8ee
8a#
=20
4.b}
{4.ccn
=21
4.cc#
[4.ee
=22
4.ee_
8ee]
8cc#
16a
16f#
=23
[4.g#
4g#]
8f#
=24
4.e}
4r
8r
=25
8r
{8b
8a
8g#
8a
8f#
=26
4e}
8r
4r
8r
==
*-